app/img/partner-3.svg

<svg width="145" height="46" viewBox="0 0 145 46" fill="none" xmlns="http://www.w3.org/2000/svg">
<g clip-path="url(#clip0)">
<path d="M70.9267 45.9275C64.0413 45.6767 56.9681 43.9971 49.7369 40.8957C46.794 39.6335 43.6816 38.07 40.5145 36.2628C38.4256 35.0709 33.6441 32.1435 33.3778 31.8936C33.2104 31.7363 33.1448 31.5888 33.1448 31.3693C33.1448 30.9631 33.4366 30.6729 33.8445 30.6736C34.0559 30.6739 34.107 30.6962 34.6064 31.0058C36.6103 32.2482 39.3821 33.6555 42.0828 34.8019C54.6613 40.1406 69.5633 42.0153 83.868 40.0585C93.6372 38.7222 103.027 35.5954 110.352 31.2396C111.409 30.6111 111.506 30.5781 111.823 30.7413C112.26 30.9667 112.355 31.5186 112.015 31.8562C111.881 31.9889 111.716 32.0943 109.312 33.5875C102.899 37.57 97.7223 40.1992 92.3318 42.211C85.0814 44.9168 77.8156 46.1783 70.9267 45.9275Z" fill="#00F0FF"/>
<path fill-rule="evenodd" clip-rule="evenodd" d="M0.327897 1.18607C0.327897 1.18607 0.463466 1.61292 0.594617 2.82598C0.751835 5.84787 0.760176 8.35271 0.778344 11.1456C0.814541 13.3024 0.793376 15.4039 0.774683 17.4276C0.762108 18.7981 0.752639 19.5451 0.752639 20.7911C0.752639 24.4989 0.458626 27.0977 0.458626 27.0977C0.458626 27.0977 3.19911 27.6876 7.33558 27.6876C11.4735 27.6876 15.8639 26.2553 18.3973 24.1063C20.9301 21.9574 23.2094 18.8814 23.2094 13.3625C23.2094 7.84335 20.8455 4.80959 17.7218 2.82971C14.5972 0.848913 9.82678 0.470334 6.15356 0.638575C2.48124 0.807496 0.45496 1.18607 0.327881 1.18607H0.327897ZM144.201 21.9574L138.675 20.6516C137.225 22.0834 135.658 22.7949 133.646 22.7578C129.504 22.682 127.445 20.2453 126.68 16.2271H144.495C144.748 14.7947 144.831 13.2779 144.747 11.8455C144.578 8.95235 143.688 6.28946 141.877 4.00928C140.084 1.75182 137 0.567933 133.187 0.59625C129.606 0.623355 126.68 1.84798 124.363 4.30442C122.186 6.61208 120.882 10.1312 120.943 14.7104C121.001 19.0606 122.11 22.2996 124.827 24.9489C126.718 26.7934 129.26 27.7786 132.595 27.7714C138.949 27.5802 141.589 25.5364 144.201 21.9574ZM139.677 11.7618H126.889C127.115 8.4608 130.143 5.3864 133.351 5.40162C136.672 5.41684 139.524 7.78732 139.677 11.7618ZM83.6006 5.59106C87.8297 5.59106 91.2592 9.41186 91.2592 14.1233C91.2592 18.8348 87.8297 22.6558 83.6006 22.6558C79.3729 22.6558 75.9428 18.8348 75.9428 14.1233C75.9428 9.41186 79.3729 5.59106 83.6006 5.59106ZM83.7653 0.483217C90.862 0.483217 96.6163 6.63676 96.6163 14.1233C96.6163 21.6099 90.6973 27.6811 83.6006 27.6811C76.5054 27.6811 70.7504 21.6099 70.7504 14.1233C70.7504 6.63676 76.67 0.483217 83.7653 0.483217ZM97.73 26.7606H103.467V9.44382C108.716 14.0366 112.584 19.8092 114.906 26.7606L119.834 26.79V1.35432L114.341 1.35432L114.335 13.8159C112.615 10.9455 110.509 8.58469 108.438 6.54953C106.365 4.51119 104.68 2.78523 102.581 1.35432H97.73V26.7606ZM47.6111 26.7606H53.1838V9.44382C58.4329 14.0366 62.2193 19.8092 64.541 26.7606H69.5224V1.35431H63.9491V13.6129C60.711 8.95681 56.7881 4.77461 52.2979 1.35431H47.6111V26.7606ZM31.6957 1.35431H37.0995C42.3467 7.14799 45.5586 15.5747 46.6408 26.7606H40.7721C40.6196 24.8178 40.3817 23.0323 40.0591 21.2395H28.4741C28.1524 23.0294 27.9167 24.8148 27.7693 26.7606H22.0699C23.098 15.5073 26.5421 6.80015 31.6957 1.35431ZM38.9778 16.4806C37.718 12.4653 36.2182 9.162 34.1883 6.11538C32.1714 9.17381 30.594 12.6218 29.4791 16.4806H38.9778ZM6.20273 5.60998C6.20273 5.60998 7.3356 5.56766 8.72937 5.56766C10.1229 5.56766 13.1667 5.82055 15.4037 8.01159C17.641 10.2027 17.6834 12.6881 17.6834 14.4161C17.6834 16.1434 17.0885 19.8929 13.4153 21.578C9.74274 23.2639 6.16055 22.6318 6.16055 22.6318L6.20273 5.60998Z" fill="#00F0FF"/>
</g>
<defs>
<clipPath id="clip0">
<rect width="144.451" height="45.4753" fill="white" transform="translate(0.327881 0.483398)"/>
</clipPath>
</defs>
</svg>

<svg width="145" height="46" fill="none" xmlns="http://www.w3.org/2000/svg"><g clip-path="url(#clip0)" fill="#00F0FF"><path d="M70.927 45.928c-6.886-.251-13.959-1.93-21.19-5.032-2.943-1.263-6.055-2.826-9.223-4.633-2.088-1.192-6.87-4.12-7.136-4.37a.649.649 0 01-.233-.524.67.67 0 01.7-.695c.21 0 .262.022.761.332 2.004 1.242 4.776 2.65 7.477 3.796 12.578 5.339 27.48 7.213 41.785 5.257 9.77-1.337 19.159-4.464 26.484-8.82 1.057-.628 1.154-.66 1.471-.498.437.226.532.778.192 1.115-.134.133-.299.238-2.703 1.731-6.413 3.983-11.59 6.612-16.98 8.624-7.25 2.706-14.516 3.967-21.405 3.717z"/><path fill-rule="evenodd" clip-rule="evenodd" d="M.328 1.186s.135.427.267 1.64c.157 3.022.165 5.527.183 8.32.037 2.156.015 4.258-.003 6.282-.013 1.37-.022 2.117-.022 3.363 0 3.708-.294 6.307-.294 6.307s2.74.59 6.877.59 8.528-1.433 11.061-3.582c2.533-2.149 4.812-5.225 4.812-10.744S20.846 4.81 17.722 2.83C14.597.849 9.827.47 6.154.639 2.48.807.455 1.186.328 1.186zM144.2 21.957l-5.526-1.305c-1.45 1.431-3.017 2.143-5.029 2.106-4.142-.076-6.201-2.513-6.966-6.53h17.815c.253-1.433.336-2.95.252-4.383-.169-2.893-1.059-5.556-2.87-7.836-1.793-2.257-4.877-3.441-8.69-3.413-3.581.027-6.507 1.252-8.824 3.708-2.177 2.308-3.481 5.827-3.42 10.406.058 4.35 1.167 7.59 3.884 10.239 1.891 1.844 4.433 2.83 7.768 2.822 6.354-.19 8.994-2.235 11.606-5.814zm-4.524-10.195h-12.788c.226-3.301 3.254-6.376 6.462-6.36 3.321.015 6.173 2.385 6.326 6.36zM83.6 5.592c4.229 0 7.658 3.82 7.658 8.531 0 4.712-3.43 8.533-7.658 8.533s-7.658-3.821-7.658-8.533c0-4.711 3.43-8.532 7.658-8.532zm.164-5.109c7.097 0 12.851 6.154 12.851 13.64 0 7.487-5.919 13.558-13.015 13.558-7.096 0-12.85-6.071-12.85-13.558 0-7.486 5.919-13.64 13.014-13.64zM97.73 26.761h5.737V9.444c5.249 4.593 9.117 10.365 11.439 17.317l4.928.029V1.354h-5.493l-.006 12.462c-1.72-2.87-3.826-5.231-5.897-7.266-2.073-2.039-3.758-3.765-5.857-5.196H97.73v25.407zm-50.119 0h5.573V9.444c5.249 4.593 9.035 10.365 11.357 17.317h4.981V1.354H63.95v12.259c-3.238-4.656-7.16-8.838-11.651-12.259H47.61v25.407zM31.696 1.354h5.403c5.248 5.794 8.46 14.22 9.542 25.407h-5.869a54.994 54.994 0 00-.713-5.521H28.474a53.624 53.624 0 00-.705 5.52h-5.7c1.029-11.253 4.473-19.96 9.627-25.406zm7.282 15.127c-1.26-4.016-2.76-7.319-4.79-10.366-2.017 3.059-3.594 6.507-4.709 10.366h9.499zM6.203 5.61s1.133-.042 2.526-.042c1.394 0 4.438.253 6.675 2.444 2.237 2.19 2.28 4.676 2.28 6.404 0 1.727-.596 5.477-4.269 7.162-3.672 1.686-7.254 1.054-7.254 1.054L6.203 5.61z"/></g><defs><clipPath id="clip0"><path fill="#fff" transform="translate(.328 .483)" d="M0 0h144.451v45.475H0z"/></clipPath></defs></svg>
